src/img/general/logo-platzi.svg

<?xml version="1.0" encoding="UTF-8"?>
<svg width="1559px" height="496px" viewBox="0 0 1559 496" version="1.1" xmlns="http://www.w3.org/2000/svg" xmlns:xlink="http://www.w3.org/1999/xlink">
    <title>platzi</title>
    <defs>
        <path d="M234.533553,0.972553216 C256.268553,-2.42244678 279.073553,3.15155322 296.533553,16.4325532 C307.489553,24.7665532 316.813553,35.8135532 326.533553,45.5335532 L326.533553,45.5335532 L382.533553,101.533553 C399.109553,118.109553 420.142553,134.270553 430.774553,155.533553 C440.547553,175.080553 441.940553,199.025553 434.304553,219.533553 C427.247117,238.486201 412.726593,251.442501 398.747561,265.323969 L397.533553,266.533553 L316.533553,347.533553 C313.565553,350.501553 309.065553,353.730553 307.169553,357.533553 C304.525553,362.835553 315.272553,370.272553 318.533553,373.533553 L318.533553,373.533553 L347.533553,402.533553 C350.673553,405.673553 357.070553,410.053553 358.187553,414.533553 C358.994553,417.771553 355.509553,420.510553 353.528553,422.533553 C348.253553,427.920553 342.865553,433.201553 337.533553,438.533553 C314.987553,461.079553 293.943553,488.876553 260.533553,494.094553 C238.798553,497.489553 215.993553,491.915553 198.533553,478.634553 C187.577553,470.300553 178.253553,459.253553 168.533553,449.533553 L168.533553,449.533553 L42.5335532,323.533553 C23.8715532,304.871553 5.24355322,287.877553 0.972553216,260.533553 C-2.42244678,238.798553 3.15155322,215.993553 16.4325532,198.533553 C25.5975532,186.484553 37.8425532,176.224553 48.5335532,165.533553 L48.5335532,165.533553 L161.533553,52.5335532 C183.023553,31.0435532 202.757553,5.93555322 234.533553,0.972553216 Z M247.533553,82.7405532 C243.721553,82.7405532 239.958553,88.1095532 237.533553,90.5335532 L91.5335532,236.533553 C88.9165532,239.150553 82.7405532,243.432553 82.7405532,247.533553 C82.7405532,251.634553 88.9165532,255.916553 91.5335532,258.533553 L237.533553,404.533553 C239.958553,406.957553 243.721553,412.326553 247.533553,412.326553 C252.658553,412.326553 259.195553,402.871553 262.533553,399.533553 L302.533553,359.533553 C292.387553,345.130553 276.991553,332.991553 264.533553,320.533553 C260.472553,316.472553 251.232553,310.217553 249.740553,304.533553 C248.807553,300.980553 253.379553,297.696553 255.533553,295.533553 L358.533553,192.533553 C350.710553,181.428553 339.133553,172.133553 329.533553,162.533553 L256.533553,89.5335532 C254.306553,87.3115532 251.036553,82.7405532 247.533553,82.7405532 Z" id="path-1"></path>
    </defs>
    <g id="platzi" stroke="none" stroke-width="1" fill="none" fill-rule="evenodd">
        <g id="Group">
            <mask id="mask-2" fill="white">
                <use xlink:href="#path-1"></use>
            </mask>
            <use id="Combined-Shape" fill="#98CA3F" fill-rule="nonzero" xlink:href="#path-1"></use>
            <path d="M80.8665532,247.200553 C80.8115532,247.255553 80.7555532,248.311553 81.2005532,247.866553 C81.2555532,247.811553 81.3115532,246.755553 80.8665532,247.200553 Z" id="Path" fill="#80AA2B" fill-rule="nonzero" mask="url(#mask-2)"></path>
        </g>
        <path d="M248,81 C253.494,88.799 261.263,95.263 268,102 L303,137 L338,172 C344.737,178.737 351.201,186.506 359,192 C353.506,184.201 345.737,177.737 339,171 L304,136 L269,101 C262.263,94.263 255.799,86.494 248,81 Z" id="Path" fill="#55AA00" fill-rule="nonzero"></path>
        <path d="M841.073326,102.053933 L841.073326,301.149281 C841.073326,318.491586 837.102352,350.493912 857.07725,358.693839 C860.448076,360.075501 864.45906,360.731815 868.079947,360.993941 C873.541286,361.38813 879.712799,360.174548 885.084116,359.177071 L885.084116,359.177071 L886.084362,396.194799 C861.64837,396.69904 833.231403,404.062567 813.236501,384.889384 C792.251356,364.759744 795.062045,327.625961 795.062045,301.149281 L795.062045,301.149281 L795.062045,102.053933 L841.073326,102.053933 Z M640.889085,102.053231 C671.317933,102.032952 699.897213,101.709868 726.045124,120.098574 C782.158881,159.561473 779.888325,255.834579 721.043897,291.680746 C697.803554,305.838443 672.055418,307.104133 645.707587,307.150725 L644.025014,307.152156 L592.012262,307.152156 L592.012262,394.19384 L542,394.19384 L542,102.053933 Z M648.025995,145.074535 L591.012017,145.074535 L591.012017,263.131074 L648.025995,263.131074 C663.494788,263.131074 678.300418,263.664329 692.036786,255.301324 C729.043859,232.770534 728.012606,169.105044 688.035805,150.196989 C675.196657,144.125081 661.841382,145.074535 648.025995,145.074535 Z M1525.24107,101.518676 C1534.91344,99.7738406 1546.20621,102.377087 1552.7178,110.15081 C1566.31114,126.377581 1556.48873,151.971839 1536.24377,155.614583 C1532.54286,156.281903 1528.91197,156.00577 1525.24107,155.271419 C1519.30961,154.08485 1513.66823,151.567645 1509.56723,146.982449 C1495.49377,131.241911 1504.9761,105.172426 1525.24107,101.518676 Z" id="Combined-Shape" fill="#4B4D4D" fill-rule="nonzero"></path>
        <path d="M422,142 L423,143 L422,142 Z" id="Path" fill="#808000" fill-rule="nonzero"></path>
        <path d="M1166.03191,144 L1166.03191,193.091354 L1125,193.091354 L1125,230.160335 L1166.03191,230.160335 L1166.03191,308.305755 C1166.03191,331.557023 1166.21205,355.956428 1180.9435,375.430667 C1199.78815,400.351041 1234.54518,403.092142 1263.10739,397.668048 C1269.13207,396.523919 1275.22681,395.4389 1281.1214,393.754766 C1283.30309,393.131607 1286.62568,392.669747 1288.09682,390.73114 C1289.90823,388.33468 1288.49713,384.118835 1288.12684,381.441853 C1286.99596,373.185489 1285.29464,364.728752 1285.12451,356.395244 C1268.02121,357.890026 1252.64926,367.650189 1235.0856,361.314398 C1219.71365,355.771083 1213.72899,341.463458 1211.90758,326.339313 C1210.44644,314.085511 1211.06692,301.608292 1211.06692,289.270332 L1211.06692,230.160335 L1281.1214,230.160335 L1281.1214,193.091354 L1211.06692,193.091354 L1211.06692,144 L1166.03191,144 Z" id="Path" fill="#4B4D4D" fill-rule="nonzero"></path>
        <path d="M435,166 L436,167 L435,166 M437,173 L438,174 L437,173 M438,178 L439,179 L438,178 Z" id="Shape" fill="#808000" fill-rule="nonzero"></path>
        <path d="M1015.27936,189.000331 C1033.81975,189.030629 1052.55003,193.216421 1070.25085,198.412957 C1076.75748,200.321582 1086.66234,202.58976 1091.91962,206.972308 C1094.8381,209.404283 1094.23842,213.557116 1094.23842,216.965875 L1094.23842,216.965875 L1094.23842,317.840381 C1094.23842,328.834703 1091.84965,343.590346 1096.80708,353.791655 C1100.53309,361.462626 1107.82986,361.772761 1115.2056,361.785196 L1116.22701,361.785709 L1116.22701,393.745949 C1097.81656,396.073054 1070.76059,400.001167 1060.53589,379.763344 C1056.69788,372.17079 1058.54692,364.543279 1056.25811,356.791922 C1052.53004,369.448177 1041.2359,379.899175 1030.27159,386.5509 C999.857358,404.999948 957.439354,400.402667 930.323416,378.149352 C915.511097,365.990478 906.065995,347.138931 901.468379,328.826713 C891.953313,290.979797 896.580913,246.812744 925.615857,218.389105 C949.583428,194.915308 983.006096,188.948731 1015.27936,189.000331 Z M1477.03991,192.995696 C1477.00992,201.283386 1473.10195,206.133352 1468.85415,212.970846 C1462.9872,222.402112 1456.76042,231.602666 1450.74354,240.936055 C1426.03636,279.272362 1400.60954,316.995432 1375.09277,354.794407 L1375.09277,354.794407 L1476.04043,354.794407 L1476.04043,394.744706 L1308.1275,394.744706 C1308.1275,376.480428 1324.27912,359.820155 1333.69424,344.806832 C1351.27513,316.738751 1369.38573,289.055191 1388.36589,261.909962 C1395.58215,251.596792 1402.24869,240.810211 1410.07463,230.94848 L1410.07463,230.94848 L1315.12387,230.94848 L1315.12387,192.995696 Z M1554,193.994454 L1554,394.744706 L1508.02384,394.744706 L1508.02384,193.994454 L1554,193.994454 Z M997.28869,227.380918 C981.067102,229.70303 966.064881,236.49458 956.070064,249.924872 C936.490218,276.229148 938.199332,325.398977 965.305275,346.276005 C977.379014,355.576434 993.630587,357.781691 1008.28299,355.497532 C1012.86061,354.783421 1017.18837,353.157444 1021.27625,351.01411 C1050.89159,335.506243 1050.27673,297.606445 1050.26147,268.773427 L1050.26122,244.931085 C1050.26122,242.138559 1050.96086,238.007698 1049.23175,235.591704 C1046.77303,232.149985 1040.09649,231.280068 1036.26848,230.324257 C1023.82493,227.214126 1010.08206,225.550196 997.28869,227.380918 Z" id="Combined-Shape" fill="#4B4D4D" fill-rule="nonzero"></path>
        <path d="M439,196 L440,197 L439,196 Z" id="Path" fill="#808000" fill-rule="nonzero"></path>
        <path d="M438,205 L439,206 L438,205 M437,210 L438,211 L437,210 Z" id="Shape" fill="#55AA00" fill-rule="nonzero"></path>
        <path d="M427,234 L428,235 L427,234 Z" id="Path" fill="#808000" fill-rule="nonzero"></path>
        <path d="M425,237 L426,238 L425,237 Z" id="Path" fill="#55AA00" fill-rule="nonzero"></path>
        <path d="M302,360 L303,361 L302,360 M305,360 L306,361 L305,360 M301,361 L302,362 L301,361 M306,361 L307,362 L306,361 M300,362 L301,363 L300,362 M307,362 L308,363 L307,362 M299,363 L300,364 L299,363 M308,363 L309,364 L308,363 M298,364 L299,365 L298,364 M309,364 L310,365 L309,364 M297,365 L298,366 L297,365 M310,365 L311,366 L310,365 M296,366 L297,367 L296,366 M311,366 L312,367 L311,366 M295,367 L296,368 L295,367 M312,367 L313,368 L312,367 M294,368 L295,369 L294,368 M313,368 L314,369 L313,368 M293,369 L294,370 L293,369 M314,369 L315,370 L314,369 M292,370 L293,371 L292,370 M315,370 L316,371 L315,370 M291,371 L292,372 L291,371 M316,371 L317,372 L316,371 M290,372 L291,373 L290,372 M317,372 L318,373 L317,372 M289,373 L290,374 L289,373 M318,373 L319,374 L318,373 M288,374 L289,375 L288,374 M319,374 L320,375 L319,374 M287,375 L288,376 L287,375 M320,375 L321,376 L320,375 M286,376 L287,377 L286,376 M321,376 L322,377 L321,376 M285,377 L286,378 L285,377 M322,377 L323,378 L322,377 M284,378 L285,379 L284,378 M323,378 L324,379 L323,378 M283,379 L284,380 L283,379 M324,379 L325,380 L324,379 M282,380 L283,381 L282,380 M325,380 L326,381 L325,380 M281,381 L282,382 L281,381 M326,381 L327,382 L326,381 M280,382 L281,383 L280,382 M327,382 L328,383 L327,382 M279,383 L280,384 L279,383 M328,383 L329,384 L328,383 M278,384 L279,385 L278,384 M329,384 L330,385 L329,384 M277,385 L278,386 L277,385 M330,385 L331,386 L330,385 M276,386 L277,387 L276,386 M331,386 L332,387 L331,386 M275,387 L276,388 L275,387 M332,387 L333,388 L332,387 M274,388 L275,389 L274,388 M333,388 L334,389 L333,388 M273,389 L274,390 L273,389 M334,389 L335,390 L334,389 M272,390 L273,391 L272,390 M335,390 L336,391 L335,390 M271,391 L272,392 L271,391 M336,391 L337,392 L336,391 M270,392 L271,393 L270,392 M337,392 L338,393 L337,392 M269,393 L270,394 L269,393 M338,393 L339,394 L338,393 M268,394 L269,395 L268,394 M339,394 L340,395 L339,394 M267,395 L268,396 L267,395 M340,395 L341,396 L340,395 M266,396 L267,397 L266,396 M341,396 L342,397 L341,396 M265,397 L266,398 L265,397 M342,397 L343,398 L342,397 M264,398 L265,399 L264,398 M343,398 L344,399 L343,398 M263,399 L264,400 L263,399 M344,399 L345,400 L344,399 M262,400 L263,401 L262,400 M345,400 L346,401 L345,400 M261,401 L262,402 L261,401 M346,401 L347,402 L346,401 M260,402 L261,403 L260,402 M347,402 L348,403 L347,402 M259,403 L260,404 L259,403 M348,403 L349,404 L348,403 M258,404 L259,405 L258,404 M349,404 L350,405 L349,404 M257,405 L258,406 L257,405 M350,405 L351,406 L350,405 M256,406 L257,407 L256,406 M351,406 L352,407 L351,406 M255,407 L256,408 L255,407 M352,407 L353,408 L352,407 M254,408 L255,409 L254,408 M353,408 L354,409 L353,408 M253,409 L254,410 L253,409 M354,409 L355,410 L354,409 M252,410 L253,411 L252,410 M355,410 L356,411 L355,410 M251,411 L252,412 L251,411 M356,411 L357,412 L356,411 M250,412 L251,413 L250,412 M357,412 L358,413 L357,412 M249,413 L250,414 L249,413 M358,413 L359,414 L358,413 M248,414 L249,415 L248,414 M359,414 L360,415 L359,414 Z" id="Shape" fill="#55AA00" fill-rule="nonzero"></path>
    </g>
</svg>

<svg width="0" height="0" class="hidden">
  <symbol xmlns="http://www.w3.org/2000/svg" xmlns:xlink="http://www.w3.org/1999/xlink" viewBox="0 0 1559 496" id="logo-platzi">
    <title>platzi</title>
    <defs>
      <path d="M234.534.973c21.735-3.395 44.54 2.179 62 15.46 10.956 8.334 20.28 19.38 30 29.1l56 56c16.576 16.577 37.609 32.738 48.24 54 9.774 19.548 11.167 43.493 3.53 64-7.057 18.953-21.577 31.91-35.556 45.791l-1.214 1.21-81 81c-2.968 2.968-7.468 6.197-9.364 10-2.644 5.302 8.103 12.739 11.364 16l29 29c3.14 3.14 9.537 7.52 10.654 12 .807 3.238-2.678 5.977-4.66 8-5.274 5.387-10.662 10.668-15.994 16-22.546 22.546-43.59 50.343-77 55.56-21.735 3.396-44.54-2.178-62-15.46-10.956-8.333-20.28-19.38-30-29.1l-126-126c-18.662-18.662-37.29-35.656-41.561-63-3.395-21.735 2.179-44.54 15.46-62 9.165-12.05 21.41-22.31 32.1-33l113-113c21.49-21.49 41.225-46.598 73-51.561zm13 81.768c-3.812 0-7.575 5.369-10 7.793l-146 146c-2.617 2.617-8.793 6.899-8.793 11 0 4.1 6.176 8.383 8.793 11l146 146c2.425 2.424 6.188 7.793 10 7.793 5.125 0 11.662-9.455 15-12.793l40-40c-10.146-14.403-25.542-26.542-38-39-4.061-4.061-13.301-10.316-14.793-16-.933-3.553 3.639-6.837 5.793-9l103-103c-7.823-11.105-19.4-20.4-29-30l-73-73c-2.227-2.222-5.497-6.793-9-6.793z" id="a"></path>
    </defs>
    <g fill="none" fill-rule="evenodd">
      <mask id="b" fill="#fff">
        <use xlink:href="#a"></use>
      </mask>
      <use fill="#98CA3F" fill-rule="nonzero" xlink:href="#a"></use>
      <path d="M80.867 247.2c-.055.056-.111 1.112.334.667.055-.055.11-1.111-.334-.666z" fill="#80AA2B" fill-rule="nonzero" mask="url(#b)"></path>
      <path d="M248 81c5.494 7.799 13.263 14.263 20 21l35 35 35 35c6.737 6.737 13.201 14.506 21 20-5.494-7.799-13.263-14.263-20-21l-35-35-35-35c-6.737-6.737-13.201-14.506-21-20z" fill="#5A0" fill-rule="nonzero"></path>
      <path d="M841.073 102.054v199.095c0 17.343-3.97 49.345 16.004 57.545 3.371 1.382 7.382 2.038 11.003 2.3 5.461.394 11.633-.82 17.004-1.817l1 37.018c-24.436.504-52.853 7.868-72.847-11.306-20.986-20.13-18.175-57.263-18.175-83.74V102.054h46.011zm-200.184 0c30.429-.021 59.008-.344 85.156 18.045 56.114 39.462 53.843 135.736-5.001 171.582-23.24 14.157-48.989 15.423-75.336 15.47l-1.683.001h-52.013v87.042H542v-292.14zm7.137 43.02h-57.014v118.057h57.014c15.469 0 30.274.533 44.01-7.83 37.008-22.53 35.977-86.196-4-105.104-12.84-6.072-26.195-5.122-40.01-5.122zm877.215-43.555c9.672-1.745 20.965.858 27.477 8.632 13.593 16.227 3.77 41.82-16.474 45.464-3.701.667-7.332.39-11.003-.344-5.931-1.186-11.573-3.703-15.674-8.289-14.073-15.74-4.59-41.81 15.674-45.463z" fill="#4B4D4D" fill-rule="nonzero"></path>
      <path d="M422 142l1 1-1-1z" fill="olive" fill-rule="nonzero"></path>
      <path d="M1166.032 144v49.091H1125v37.07h41.032v78.145c0 23.251.18 47.65 14.912 67.125 18.844 24.92 53.601 27.661 82.163 22.237 6.025-1.144 12.12-2.23 18.014-3.913 2.182-.623 5.505-1.085 6.976-3.024 1.811-2.396.4-6.612.03-9.29-1.131-8.256-2.832-16.712-3.002-25.046-17.104 1.495-32.476 11.255-50.04 4.92-15.371-5.544-21.356-19.852-23.177-34.976-1.462-12.253-.841-24.73-.841-37.069v-59.11h70.054v-37.069h-70.054V144h-45.035z" fill="#4B4D4D" fill-rule="nonzero"></path>
      <path d="M435 166l1 1-1-1m2 7l1 1-1-1m1 5l1 1-1-1z" fill="olive" fill-rule="nonzero"></path>
      <path d="M1015.28 189c18.54.03 37.27 4.216 54.97 9.413 6.507 1.909 16.412 4.177 21.67 8.56 2.918 2.431 2.318 6.584 2.318 9.993V317.84c0 10.995-2.388 25.75 2.57 35.952 3.725 7.67 11.022 7.98 18.398 7.993h1.021v31.96c-18.41 2.328-45.466 6.256-55.691-13.982-3.838-7.592-1.99-15.22-4.278-22.971-3.728 12.656-15.022 23.107-25.986 29.759-30.415 18.449-72.833 13.852-99.949-8.402-14.812-12.159-24.257-31.01-28.855-49.322-9.515-37.847-4.887-82.014 24.148-110.438 23.967-23.474 57.39-29.44 89.663-29.389zm461.76 3.996c-.03 8.287-3.938 13.137-8.186 19.975-5.867 9.431-12.094 18.632-18.11 27.965-24.708 38.336-50.134 76.06-75.651 113.858h100.947v39.95h-167.912c0-18.264 16.151-34.924 25.566-49.937 17.581-28.068 35.692-55.752 54.672-82.897 7.216-10.313 13.883-21.1 21.709-30.962h-94.951v-37.952zm76.96.998v200.75h-45.976v-200.75H1554zm-556.711 33.387c-16.222 2.322-31.224 9.114-41.219 22.544-19.58 26.304-17.87 75.474 9.235 96.351 12.074 9.3 28.326 11.506 42.978 9.222 4.578-.715 8.905-2.34 12.993-4.484 29.616-15.508 29-53.408 28.985-82.24V244.93c0-2.792.7-6.923-1.03-9.34-2.458-3.441-9.135-4.31-12.963-5.267-12.443-3.11-26.186-4.774-38.98-2.943z" fill="#4B4D4D" fill-rule="nonzero"></path>
      <path d="M439 196l1 1-1-1z" fill="olive" fill-rule="nonzero"></path>
      <path d="M438 205l1 1-1-1m-1 5l1 1-1-1z" fill="#5A0" fill-rule="nonzero"></path>
      <path d="M427 234l1 1-1-1z" fill="olive" fill-rule="nonzero"></path>
      <path d="M425 237l1 1-1-1zM302 360l1 1-1-1m3 0l1 1-1-1m-4 1l1 1-1-1m5 0l1 1-1-1m-6 1l1 1-1-1m7 0l1 1-1-1m-8 1l1 1-1-1m9 0l1 1-1-1m-10 1l1 1-1-1m11 0l1 1-1-1m-12 1l1 1-1-1m13 0l1 1-1-1m-14 1l1 1-1-1m15 0l1 1-1-1m-16 1l1 1-1-1m17 0l1 1-1-1m-18 1l1 1-1-1m19 0l1 1-1-1m-20 1l1 1-1-1m21 0l1 1-1-1m-22 1l1 1-1-1m23 0l1 1-1-1m-24 1l1 1-1-1m25 0l1 1-1-1m-26 1l1 1-1-1m27 0l1 1-1-1m-28 1l1 1-1-1m29 0l1 1-1-1m-30 1l1 1-1-1m31 0l1 1-1-1m-32 1l1 1-1-1m33 0l1 1-1-1m-34 1l1 1-1-1m35 0l1 1-1-1m-36 1l1 1-1-1m37 0l1 1-1-1m-38 1l1 1-1-1m39 0l1 1-1-1m-40 1l1 1-1-1m41 0l1 1-1-1m-42 1l1 1-1-1m43 0l1 1-1-1m-44 1l1 1-1-1m45 0l1 1-1-1m-46 1l1 1-1-1m47 0l1 1-1-1m-48 1l1 1-1-1m49 0l1 1-1-1m-50 1l1 1-1-1m51 0l1 1-1-1m-52 1l1 1-1-1m53 0l1 1-1-1m-54 1l1 1-1-1m55 0l1 1-1-1m-56 1l1 1-1-1m57 0l1 1-1-1m-58 1l1 1-1-1m59 0l1 1-1-1m-60 1l1 1-1-1m61 0l1 1-1-1m-62 1l1 1-1-1m63 0l1 1-1-1m-64 1l1 1-1-1m65 0l1 1-1-1m-66 1l1 1-1-1m67 0l1 1-1-1m-68 1l1 1-1-1m69 0l1 1-1-1m-70 1l1 1-1-1m71 0l1 1-1-1m-72 1l1 1-1-1m73 0l1 1-1-1m-74 1l1 1-1-1m75 0l1 1-1-1m-76 1l1 1-1-1m77 0l1 1-1-1m-78 1l1 1-1-1m79 0l1 1-1-1m-80 1l1 1-1-1m81 0l1 1-1-1m-82 1l1 1-1-1m83 0l1 1-1-1m-84 1l1 1-1-1m85 0l1 1-1-1m-86 1l1 1-1-1m87 0l1 1-1-1m-88 1l1 1-1-1m89 0l1 1-1-1m-90 1l1 1-1-1m91 0l1 1-1-1m-92 1l1 1-1-1m93 0l1 1-1-1m-94 1l1 1-1-1m95 0l1 1-1-1m-96 1l1 1-1-1m97 0l1 1-1-1m-98 1l1 1-1-1m99 0l1 1-1-1m-100 1l1 1-1-1m101 0l1 1-1-1m-102 1l1 1-1-1m103 0l1 1-1-1m-104 1l1 1-1-1m105 0l1 1-1-1m-106 1l1 1-1-1m107 0l1 1-1-1m-108 1l1 1-1-1m109 0l1 1-1-1m-110 1l1 1-1-1m111 0l1 1-1-1z" fill="#5A0" fill-rule="nonzero"></path>
    </g>
  </symbol>
</svg>
